X: 1
T:Le jeamber (J. Blanchard, B. Blanc)
C:Trad 1, 76
M:2/4
L:1/16
K:G
D2EF G2AB|cBAG Adcd|D2EF GFAB|\
cBAG FAEA|D2EF G2AB|cBAG Adcd|
D2EF GFAB|cBAF G4:|\
|:d2d2 c2AB|cBAG FDFA|c2c2 B2AG|FGAG FDGB|
d2d2 c2AB|cBAG FDFA|c2c2 B2AG|FGAF G4:|\
|:A2AB c2cB|AGAc B2G2|
A2AB c2cB|AGAF G4:|\
|:d2de d2cB|AGAc B2G2|d2de d2cB|AGAF G4:|
